src/cmd/lc_extrusiondepthfloater.svg

<svg viewBox="0 0 24 24" xmlns="http://www.w3.org/2000/svg"><path d="m11 4-6 6h10v9l6-6v-9z" fill="#b3b3b3"/><path d="m10.28125 4s-.276707.28365-.28125.28125l-5.71875 5.71875-.28125.292969v9.707031h10.6875l.3125-.3125 5.6875-5.6875.3125-.3125v-1.40625-7.59375-.6875h-.71875-8.59375zm.40625 1h.3125 8.28125l-5 5h-3.28125l2-2h2l-1-2-5 2h2l-2 2h-3.3125zm9.3125.6875v7.3125.28125l-5 5v-7.59375zm-15 5.3125h9v8h-9z" fill="#232629"/></svg>

<?xml version="1.0" encoding="UTF-8" standalone="no"?>
<svg
   xmlns:dc="http://purl.org/dc/elements/1.1/"
   xmlns:cc="http://creativecommons.org/ns#"
   xmlns:rdf="http://www.w3.org/1999/02/22-rdf-syntax-ns#"
   xmlns:svg="http://www.w3.org/2000/svg"
   xmlns="http://www.w3.org/2000/svg"
   xmlns:sodipodi="http://sodipodi.sourceforge.net/DTD/sodipodi-0.dtd"
   xmlns:inkscape="http://www.inkscape.org/namespaces/inkscape"
   viewBox="0 0 24 24"
   version="1.1"
   id="svg6"
   sodipodi:docname="lc_extrusiondepthfloater.svg"
   inkscape:export-filename="/home/jupiter007/Libreoffice yaru theme fullcolor/build/cmd/lc_extrusiondepthfloater.png"
   inkscape:export-xdpi="95"
   inkscape:export-ydpi="95"
   inkscape:version="0.92.5 (2060ec1f9f, 2020-04-08)">
  <metadata
     id="metadata12">
    <rdf:RDF>
      <cc:Work
         rdf:about="">
        <dc:format>image/svg+xml</dc:format>
        <dc:type
           rdf:resource="http://purl.org/dc/dcmitype/StillImage" />
      </cc:Work>
    </rdf:RDF>
  </metadata>
  <defs
     id="defs10" />
  <sodipodi:namedview
     pagecolor="#ffffff"
     bordercolor="#666666"
     borderopacity="1"
     objecttolerance="10"
     gridtolerance="10"
     guidetolerance="10"
     inkscape:pageopacity="0"
     inkscape:pageshadow="2"
     inkscape:window-width="1920"
     inkscape:window-height="1011"
     id="namedview8"
     showgrid="false"
     inkscape:zoom="39.333333"
     inkscape:cx="15.866937"
     inkscape:cy="10.736862"
     inkscape:window-x="0"
     inkscape:window-y="32"
     inkscape:window-maximized="1"
     inkscape:current-layer="svg6" />
  <path
     d="m11 4-6 6h10v9l6-6v-9z"
     fill="#b3b3b3"
     id="path2" />
  <path
     d="m 10.28125,4 c 0,0 -0.276707,0.28365 -0.28125,0.28125 L 4.28125,10 4,10.292969 V 20 H 14.6875 L 15,19.6875 20.6875,14 21,13.6875 V 12.28125 4.6875 4 H 20.28125 11.6875 Z M 10.6875,5 H 11 19.28125 l -5,5 H 5.6875 Z M 20,5.6875 V 13 13.28125 l -5,5 V 10.6875 Z M 5,11 h 9 v 8 H 5 Z"
     id="path4"
     style="fill:#1463a5;fill-opacity:1"
     inkscape:connector-curvature="0"
     sodipodi:nodetypes="cccccccccccccccccccccccccccccccc" />
  <path
     sodipodi:nodetypes="cccccccc"
     inkscape:connector-curvature="0"
     d="m 11,10 2,-2 h 2 L 14,6 9,8 h 2 l -2,2 z"
     id="path826"
     style="fill:#000000;fill-opacity:1;stroke:#000000;opacity:0.6;stroke-width:2;stroke-miterlimit:4;stroke-dasharray:none;stroke-linejoin:round" />
  <path
     style="fill:#ffffff;fill-opacity:1"
     id="path822"
     d="m 11,10 2,-2 h 2 L 14,6 9,8 h 2 l -2,2 z"
     inkscape:connector-curvature="0"
     sodipodi:nodetypes="cccccccc" />
  <rect
     style="opacity:1;fill:#ffffff;fill-opacity:1;stroke:none;stroke-width:2;stroke-linejoin:round;stroke-miterlimit:4;stroke-dasharray:none;stroke-opacity:1"
     id="rect824"
     width="9"
     height="8"
     x="5"
     y="11" />
</svg>
